X:1
T:Title
%%score ( 1 2 3 ) { 4 | ( 5 6 ) }
L:1/8
Q:1/4=112
M:4/4
K:Eb
V:1 treble nm="Grand Piano, Staff"
V:2 treble 
V:3 treble 
V:4 bass nm="Choir Pad, St. Hugh (Hopkins), CM"
V:5 bass 
V:6 bass 
V:1
 [B,E]2 [CE]2 [B,F]2 [B,G]2 | z2 B2 F2 z2 | [EG]2 [EA]2 [Dc]2 [EB]2 | E2 [DF]6 | %4
w: By~Edward~John~Hopkins,~1862 * * *||||
 [DB]2 [Ee]2 [Gd]2 [Gc]2 | [EB]2 [EA]2 [EG]2 [EF]2 | [Dc]2 [EB]2 E2 E2 | z F E6- | E2 z2 z4 |] %9
w: |||||
V:2
 x8 | E2 E2- E/ z/ D [EG]2 | x8 | x8 | x8 | x8 | z4 z2 F2- | F z z2 z4 | x8 |] %9
V:3
 x8 | x8 | x8 | x8 | x8 | x8 | x8 | D2 z2 z4 | x8 |] %9
V:4
 G,2 A,2 A,2 G,2 | G,2 G,2 A,2 G,2 | B,2 A,2 A,2 B,2- | B,2 B,6 | A,2 G,2 =B,2 C2 | %5
 G,2 A,2 B,2 C2 | F,2 B,2 G,2 F,2 | A,2 G,6- | G,2 z2 z4 |] %9
V:5
 E,2 C,2 D,2 E,2 | C,2 B,,2 B,,2 E,2 | _D,2 C,2 F,2 G,2 | z =A, B,,6 | B,,2 C,2 D,2 E,2 | %5
 _D,2 C,2 B,,2 =A,,2 | A,,2 G,,2 C,2 A,,2 | B,,2 E,6- | E,2 z2 z4 |] %9
V:6
 x8 | x8 | x8 | C,2 z2 z4 | x8 | x8 | x8 | x8 | x8 |] %9

